X: 18724
T: Ice Flower
R: waltz
M: 3/4
K: Aminor
M:5/4
|:Ec cB AG/F/ ED/E/ FD|EA/B/ cB/A/ EA cB B2|
Ec cB AG/F/ ED/E/ FD|EA/B/ cB/A/ EA BA A2:|
|:Ae ed/e/ fd ed/c/ Bd|cB/A/ Bc d/c/B/A/ cB B2|
Ae ed/e/ fd ed/c/ Bd|cB/A/ BA/G/ EA BA A2:|

